X:585
T:
S:Upptecknad efter Pucksson å Klintehamn.
R:schottis
O:Gotland, Klintehamn
M:2/4
L:1/16
K:D
A2|d2A2 d2A2|f6e2|d2c2 B2A2|c2BB B2B2|e2B2 e2B2|g6 f2|e2d2 c2B2|A2aa
a2A2|d2A2d2A2|f6e2|d2c2 B2A2|c2BB B2B2|e2f2 g2a2|b6a2|a2g2 B2c2|d2dd d2::d2|
K:G
g2BB d2g2|f2e2 e4|cAFA c2f2|e2d2 d4|b2B2 bagf|f2e2 c'4|agfe dc'ba|g2g2 g2:|

